!!!COM: Scriabin, Alexander
!!!OTL: Sonata No. 9
!!!OPS: 68
!!!ODT: 1912–1913
!!!AGN: Sonata
**kern	**kern	**kern
*staff3	*staff2	*staff1
*clefF4	*clefF4	*clefG2
*k[]	*k[]	*k[]
*M4/8	*M4/8	*M4/8
=1	=1	=1
2r	2r	8gL 8b
.	.	8c#XJ 8b-X
.	.	8fL 8a
.	.	8BnJ 8a-X
=2	=2	=2
2r	8c#XL 8f	[2g [2bn
.	8GJ 8e	.
.	8BL 8e-X	.
.	8FJ 8d	.
=3	=3	=3
2r	8c#X 8f	8gL] 8b]
.	8r	8c#XJ 8b-X
.	4r	8fL 8a
.	.	8BnJ 8a-X
=4	=4	=4
2r	8c#XL 8f	[2g [2bn
.	8GJ 8e	.
.	8BL 8e-X	.
.	8FJ 8d	.
*	*clefG2	*
=5	=5	=5
4r	8c#X 8f	8gL] 8b]
.	16.r	8c#XJ 8b-X
.	32e	.
24fLL	[8fL	8gL 8cc-X
24d-X	.	.
24E-XJJ	.	.
8r	16.fL]	8d-XJ 8b-
.	32gJJk	.
=6	=6	=6
32a-XLLL	[8a-XL	8b-XL 8ddn
32en	.	.
32B-X	.	.
32CJJJ	.	.
8r	16.a-L]	8eJ 8dd-X
.	32b-XJJk	.
40bnLLL	[8bnL	8cc#XL 8ff
40g	.	.
40c#X	.	.
40G	.	.
40AAnJJJ	.	.
8r	16.bL]	8gJ 8ee
.	32cc#XJJk	.
=7	=7	=7
48ddLLL	4dd	8eeL 8gg#X
48a#X	.	.
48e	.	.
48A#X	.	.
48E	.	.
48FF#XJJJ	.	.
8r	.	8a#XJ 8ggn
*	*clefF4	*
4AAAn 4EE-X 4BB-X	12r	4b-X 4ee-X 4gg-X 4bb-X
.	24G-X	.
.	24G-LL	.
.	24G-	.
.	24G-JJ	.
=8	=8	=8
*^	*^	*
2BB-X	12rEE	8rc	16G-XLL	2r
.	.	.	[16E-X	.
.	24EE-X	.	.	.
.	16AAALL	8rc	16E-J]	.
.	[16EE-JJ	.	32r	.
.	.	.	32GnJkk	.
.	16EE-LL]	12rc	4G-X	.
.	16AAA	.	.	.
.	.	24B-X	.	.
.	16EE-	24B-LL	.	.
.	.	24B-	.	.
.	16AAAJJ	.	.	.
.	.	24B-JJ	.	.
*	*	*v	*v	*
=9	=9	=9	=9
2D	12rEE	16B-XLL	2r
.	.	[16Gn	.
.	24GG	.	.
.	16CC#XLL	16GJ]	.
.	[16GGJJ	32r	.
.	.	32BnJkk	.
.	16GGLL]	[4B-X	.
.	16CC#JJ	.	.
.	12GGL	.	.
.	24CC#Jk	.	.
=10	=10	=10	=10
2D	24rEE	4B-_	2r
.	24GGLL	.	.
.	[24CC#XJJ	.	.
.	12CC#L]	.	.
.	[24GGJk	.	.
.	16GGLL]	12B-L]	.
.	16CC#	.	.
.	.	24B-XJk	.
.	16GG	24B-LL	.
.	.	24B-	.
.	16CC#JJ	.	.
.	.	24B-JJ	.
*v	*v	*	*
*	*clefG2	*
=11	=11	=11
2r	8gL 8bn	2r
.	8c#XJ 8b-X	.
.	8fL 8a	.
.	8BnJ 8a-X	.
=12	=12	=12
8c#XL 8f	2g 2bn	2r
8GJ 8e	.	.
8BL 8e-X	.	.
8FJ 8d	.	.
=13	=13	=13
*^	*	*
2c#X 2f	8GL 8B	2r	2r
.	8C#XJ 8B-X	.	.
.	8FL 8A	.	.
.	8BBnJ 8A-X	.	.
=14	=14	=14	=14
2ryy	8G 8Bn	8c#XL 8f	2r
.	8r	8GJ 8e	.
.	4r	8BL 8e-X	.
.	.	8FJ 8d	.
*v	*v	*	*
=15	=15	=15
*	*^	*
8GL 8B	8c#X 8f	8rc	2r
8C#XJ 8B-X	16.raa	8rc	.
.	32en	.	.
8GL 8c-X	[8fL	4d-X	.
8D-XJ 8B-	16.fL]	.	.
.	32gJJk	.	.
=16	=16	=16	=16
*^	*	*	*
8dnL	24B-XLL	[8a-XL	4e	2r
.	24E	.	.	.
.	24CJJ	.	.	.
8EJ 8d-X	8rEE	16.a-L]	.	.
.	.	32b-XJJk	.	.
8fL	24c#XLL	[8bnL	4g	.
.	24G	.	.	.
.	24AAnJJ	.	.	.
8GJ 8e	8rEE	16.bL]	.	.
.	.	32cc#XJJk	.	.
=17	=17	=17	=17	=17
8g#XL	32eLLL	4dd	4a#X	2r
.	32A#X	.	.	.
.	32E	.	.	.
.	32FF#XJJJ	.	.	.
8A#J 8gn	8rEE	.	.	.
8G#XL 8c	4rEE	[8f#XL	4d	.
8DJ 8B	.	16.f#L]	.	.
.	.	32g#XJJk	.	.
=18	=18	=18	=18	=18
8d#XL	24BLL	[8anL	4e#X	2r
.	24E#X	.	.	.
.	24C#XJJ	.	.	.
8E#XJ 8dn	8rEE	16.aL]	.	.
.	.	32bJJk	.	.
8g-XL	24dLL	[8ccnL	4a-X	.
.	24A-X	.	.	.
.	24BB-XJJ	.	.	.
8A-J 8f	8rEE	16.ccL]	.	.
.	.	32ddJJk	.	.
=19	=19	=19	=19	=19
*	*	*	*^	*
8anL	32fLLL	[8ee-XL	4bn	4r	2r
.	32Bn	.	.	.	.
.	32F	.	.	.	.
.	32GGnJJJ	.	.	.	.
8BJ 8a-X	8rEE	16.ee-L]	.	.	.
.	.	32ffJJk	.	.	.
[8qBBB-X/	.	.	.	.	.
4BBB-] 4EEn 4BB-X 4F	4rEE	4gg-X	4f 4b-X 4dd-X 4ff	12r	.
*	*	*clefF4	*	*	*
.	.	.	.	24D-X\	.
.	.	.	.	24D-\LL	.
.	.	.	.	24D-\	.
.	.	.	.	24D-\JJ	.
*v	*v	*	*	*	*
*	*v	*v	*v	*
=20	=20	=20
12r	16D-XLL	2r
.	[16BB-X	.
24EE	.	.
16BBB-XLL	16BB-J]	.
[16EEJJ	32r	.
.	32DnJkk	.
16EELL]	4D-X	.
16BBB-	.	.
16EE	.	.
16BBB-JJ	.	.
*	*clefG2	*
=21	=21	=21
*^	*^	*
8e-XL	24BnLL	16raa	4rc	2r
.	24F	.	.	.
.	.	8aL 8ff 8aa	.	.
.	24GGJJ	.	.	.
8FJ 8dn	8rEE	.	.	.
.	.	16a-XJk 16bn 16aa-X	.	.
4AAA#X 4EEn 4BB	4rEE	4b 4ee 4gg 4bb	12rc	.
*	*	*clefF4	*	*
.	.	.	24G	.
.	.	.	24GLL	.
.	.	.	24G	.
.	.	.	24GJJ	.
=22	=22	=22	=22	=22
*	*	*v	*v	*
2B	12r	16GL	2r
.	.	[16E	.
.	24EE	.	.
.	16AAA#XLL	16EJ]	.
.	[16EEJJ	32r	.
.	.	32G#XJkk	.
.	16EELL]	12GnL	.
.	16AAA#	.	.
.	.	24GJk	.
.	16EE	24GLL	.
.	.	24G	.
.	16AAA#JJ	.	.
.	.	24GJJ	.
=23	=23	=23	=23
[4.BB	16rEE	24r	2r
.	.	24GLL	.
.	16EELL	.	.
.	.	[24G#XJJ	.
.	16AAA#X	4G#_	.
.	[16EEJJ	.	.
.	16EELL]	.	.
.	16AAA#JJ	.	.
12BBL]	12EEL	16G#LL]	.
.	.	64GnLL	.
.	.	64G#X	.
24CJk	24AAA#Jk	.	.
.	.	64c	.
.	.	64eJJJJ	.
=24	=24	=24	=24
*	*	*clefG2	*
2D	24rEE	[4.f	2r
.	24EELL	.	.
.	[24AAA#XJJ	.	.
.	12AAA#L]	.	.
.	[24EEJk	.	.
.	12EEL]	.	.
.	24AAA#Jk	.	.
.	12EEL	16fLL]	.
.	.	64GLL	.
.	.	64G#X	.
.	24AAA#Jk	.	.
.	.	64c	.
.	.	64eJJJJ	.
=25	=25	=25	=25
*	*^	*	*
8.DL	24rEE	24r	[8.fL	2r
.	[12EE	24EE/LL	.	.
.	.	[24AAA#X/JJ	.	.
.	4.EE]	4.AAA#/]	.	.
16CJk	.	.	64fLLL]	.
.	.	.	64e	.
.	.	.	64c	.
.	.	.	64G#XJJJJ	.
8.BBL	.	.	[8.GnL	.
16CJk	.	.	64GLLL]	.
.	.	.	64G#X	.
.	.	.	64c	.
.	.	.	64eJJJJ	.
=26	=26	=26	=26	=26
8.DL	24rEE	24r	[8.fL	2r
.	[12EE	24EE/LL	.	.
.	.	[24AAA#X/JJ	.	.
.	4.EE]	4.AAA#/]	.	.
16CJk	.	.	64fLLL]	.
.	.	.	64e	.
.	.	.	64c	.
.	.	.	64G#XJJJJ	.
8.BB	.	.	8.GnL	.
16rc	.	.	64A-XLLL	.
.	.	.	64d	.
.	.	.	64g-X	.
.	.	.	64b-XJJJJ	.
=27	=27	=27	=27	=27
8.A-XL	24rEE	24r	[8.cc-XL	2r
.	[12EE	24EE/LL	.	.
.	.	[24BBB-X/JJ	.	.
.	4.EE]	4.BBB-/]	.	.
16G-XJk	.	.	64cc-LLL]	.
.	.	.	64b-X	.
.	.	.	64g-X	.
.	.	.	64dnJJJJ	.
8.FL	.	.	[8.d-XL	.
16G-Jk	.	.	64d-LLL]	.
.	.	.	64dn	.
.	.	.	64g-	.
.	.	.	64b-JJJJ	.
=28	=28	=28	=28	=28
8.A-XL	24rEE	24r	[8.cc-XL	2r
.	[12EE	24EE/LL	.	.
.	.	[24BBB-X/JJ	.	.
.	4.EE]	4.BBB-/]	.	.
16G-XJk	.	.	64cc-LLL]	.
.	.	.	64b-X	.
.	.	.	64g-X	.
.	.	.	64dnJJJJ	.
8.F	.	.	8.d-XL	.
16rc	.	.	64dnLLL	.
.	.	.	64g#X	.
.	.	.	64ccn	.
.	.	.	64eeJJJJ	.
=29	=29	=29	=29	=29
8rc	24rEE	24r	[16ffLL	2r
.	[12EE	24EE/LL	.	.
.	.	.	64ffLL]	.
.	.	.	64ee	.
.	.	[24AAA#X/JJ	.	.
.	.	.	64cc	.
.	.	.	64g#XJJJJ	.
4BBn 4Bn	4.EE]	4.AAA#/]	[16gnLL	.
.	.	.	64gLL]	.
.	.	.	64g#X	.
.	.	.	64cc	.
.	.	.	64eeJJJJ	.
.	.	.	[16ffLL	.
.	.	.	64ffLL]	.
.	.	.	64ee	.
.	.	.	64cc	.
.	.	.	64g#XJJJJ	.
16BB 16B	.	.	16gnLL	.
16rc	.	.	64a-XLL	.
.	.	.	64dd	.
.	.	.	64gg-X	.
.	.	.	64bb-XJJJJ	.
*	*v	*v	*	*
=30	=30	=30	=30
.	[8qBBB-X\ [8qEE	.	.
8A-X 8d 8g-X	8BBB-] 8EE]	8ccc-X	2r
4BBB- 4EE 4C-X 4F	8rEE	4d-X	.
.	8rEE	.	.
16BBB- 16EE 16C- 16F	8rEE	16d-LL	.
16rc	.	64gnLL	.
.	.	64g#X	.
.	.	64cc	.
.	.	64eenJJJJ	.
=31	=31	=31	=31
*	*^	*	*
8rc	24rEE	24r	[16ffLL	2r
.	[12EE	24EE/LL	.	.
.	.	.	64ffLL]	.
.	.	.	64ee	.
.	.	[24AAA#X/JJ	.	.
.	.	.	64cc	.
.	.	.	64g#XJJJJ	.
4BBn 4Bn	4.EE]	4.AAA#/]	[16gnLL	.
.	.	.	64gLL]	.
.	.	.	64g#X	.
.	.	.	64cc	.
.	.	.	64eeJJJJ	.
.	.	.	[16ffLL	.
.	.	.	64ffLL]	.
.	.	.	64ee	.
.	.	.	64cc	.
.	.	.	64g#XJJJJ	.
16BB 16B	.	.	16gnLL	.
16rc	.	.	64a-XLL	.
.	.	.	64dd	.
.	.	.	64gg-X	.
.	.	.	64bb-XJJJJ	.
*	*v	*v	*	*
=32	=32	=32	=32
.	[8qBBB-X\ [8qEE	.	.
4..A-X 4..d 4..g-X	4BBB-] 4EE]	12ccc-X	2r
.	.	24b-X	.
.	.	[8cc-X	.
.	4rEE	8.cc-L]	.
16rc	.	64dd-XLLL	.
.	.	64ddn	.
.	.	64gg-X	.
.	.	64bb-XJJJJ	.
=33	=33	=33	=33
.	[8qBBB-X\ [8qEE	.	.
2A-X 2d 2g-X	2BBB-] 2EE]	12ccc-X	2r
.	.	24b-X	.
.	.	[8cc-X	.
.	.	4cc-_	.
*clefG2	*	*	*
=34	=34	=34	=34
4raa	4rc	4cc-]	2r
16raa	8rc	4r	.
16d-XLL	.	.	.
16dn	8d	.	.
[16g-XJJ	.	.	.
=35	=35	=35	=35
4g-_	2A-X 2d	12r	2r
.	.	12b-XL	.
.	.	[12cc-XJ	.
12g-L]	.	6cc-]	.
12gn	.	.	.
12g-XJ	.	12b-	.
=36	=36	=36	=36
[4f	2c-X 2d-X	12r	2r
.	.	12b-XL	.
.	.	[12cc-XJ	.
6f]	.	6cc-]	.
24g-XLL	.	12b-	.
24fJJ	.	.	.
=37	=37	=37	=37
[8qe/	.	.	.
2e_	[2dn [2g#X	12r	2r
.	.	12a#XL	.
.	.	[12bnJ	.
.	.	6b]	.
.	.	12a#	.
=38	=38	=38	=38
2e]	2d] 2g#]	12r	2r
.	.	12a#XL	.
.	.	[12bJ	.
.	.	6b]	.
.	.	12a#	.
*v	*v	*	*
=39	=39	=39
2e 2g#X	12r	2r
.	12a#XL	.
.	[12bJ	.
.	6b]	.
.	12a#	.
=40	=40	=40
2f 2gn 2b	12bL	2r
.	12dd	.
.	[12eeJ	.
.	6ee]	.
.	12dd	.
=41	=41	=41
*^	*	*
[4dd	[4a-X [4b-X	8r	2r
.	.	[8gg	.
16dd]	8.a-] 8.b-]	16ggLL]	.
16raa	.	16ddJJ	.
8raa	.	24ccLL	.
.	.	24.g	.
.	16rc	.	.
.	.	48a-XJJk	.
*v	*v	*	*
=42	=42	=42
4r	2cc-X	2r
12r	.	.
[24a-X	.	.
12a-L]	.	.
24a-Jk	.	.
=43	=43	=43
2a-X 2ccn	12r	2r
.	12ddL	.
.	[12ee-XJ	.
.	6ee-]	.
.	12dd	.
=44	=44	=44
2an 2b	12dd#XL	2r
.	12ff#X	.
.	[12gg#XJ	.
.	6gg#]	.
.	12ff#	.
=45	=45	=45
*^	*	*
[4ff#X	[4cc [4ddn	8r	2r
.	.	[8bb	.
16ff#]	8.cc] 8.dd]	16bbLL]	.
16raa	.	16ff#XJJ	.
8raa	.	24eeLL	.
.	.	24.b	.
.	16rc	.	.
.	.	48ccJJk	.
*v	*v	*	*
=46	=46	=46
*	*^	*
2r	4raa	2ee-X	2r
.	12raa	.	.
.	[24ccc	.	.
.	12cccL]	.	.
.	24cccJk	.	.
*clefF4	*	*	*
*	*v	*v	*
=47	=47	=47
*M3/8	*M3/8	*M3/8
*	*^	*
12r	8ccc	24rc	4.r
.	.	[12b	.
24f#X	.	.	.
24cLL	8raa	12bL]	.
24DJJ	.	.	.
24r	.	24f#XJk	.
8r	8raa	24enLL	.
.	.	24.B	.
.	.	48cJJk	.
=48	=48	=48	=48
*^	*	*	*
12rc	4.FFn 4.BB 4.A	12raa	4.e-X	4.r
.	.	16qqa/LL	.	.
.	.	16qqdd/JJ	.	.
24g	.	[24ee-X	.	.
8g-XL	.	12ee-L]	.	.
.	.	16qqa/LL	.	.
.	.	16qqdd/JJ	.	.
.	.	[24ee-Jk	.	.
8fJ	.	12ee-L]	.	.
.	.	16qqa/LL	.	.
.	.	16qqdd/JJ	.	.
.	.	24ee-Jk	.	.
*	*	*v	*v	*
=49	=49	=49	=49
16F#X 16c 16en	8DD 8D	16r	4.r
16qqD/LL	.	.	.
16qqc/	.	.	.
16qqf#X/JJ	.	.	.
*clefG2	*	*	*
48eLLL 48ee	.	[16bb	.
48cc	.	.	.
48f#XJJJ	.	.	.
*clefF4	*	*	*
24cLL	8rEE	12bbL]	.
24DJJ	.	.	.
24rc	.	24ff#XJk	.
8rc	8rEE	24eenLL	.
.	.	24.b	.
.	.	48ccJJk	.
=50	=50	=50	=50
*clefG2	*	*	*
12raa	4.Fn 4.B 4.a	4.ee-X	12r
.	.	.	16qqaa/LL
.	.	.	16qqbb/
.	.	.	16qqddd/JJ
24gg	.	.	[24eee-X
8gg-XL	.	.	12eee-L]
.	.	.	16qqaa/LL
.	.	.	16qqbb/
.	.	.	16qqddd/JJ
.	.	.	[24eee-Jk
8ffJ	.	.	12eee-L]
.	.	.	16qqaa/LL
.	.	.	16qqbb/
.	.	.	16qqddd/JJ
.	.	.	24eee-Jk
*v	*v	*	*
*clefF4	*	*
=51	=51	=51
*M4/8	*M4/8	*M4/8
*	*	*^
*	*	*	*^
2BB-X 2A-X 2d	24r	8raa	8rc	2ff-X\
.	24b-XLL	.	.	.
.	[24cc-XJJ	.	.	.
.	.	16qqaa-X/LL	[8qaa-\	.
.	.	16qqeee-X/JJ	.	.
.	4cc-]	4.fff-X	4.aa-]	.
.	8b-	.	.	.
=52	=52	=52	=52	=52
2D-X 2c-X 2fn	24r	8raa	8rc	2ee-X\
.	24b-XLL	.	.	.
.	[24cc-XJJ	.	.	.
.	.	16qqgg/LL	[8qgg\	.
.	.	16qqddd/JJ	.	.
.	4cc-]	4.eee-X	4.gg]	.
.	8b-	.	.	.
=53	=53	=53	=53	=53
[2En [2dn [2g#X	24r	8raa	8rc	[2dd\
.	24a#XLL	.	.	.
.	[24bnJJ	.	.	.
.	.	16qqff#X/LL	[8qff#\	.
.	.	16qqccc#X/JJ	.	.
.	4b]	4.ddd	4.ff#]	.
.	8a#	.	.	.
=54	=54	=54	=54	=54
2E] 2d] 2g#]	24r	8raa	8rc	2dd\]
.	24a#XLL	.	.	.
.	[24bJJ	.	.	.
.	.	16qqff#X/LL	[8qff#\	.
.	.	16qqccc#X/JJ	.	.
.	4b]	4.ddd	4.ff#]	.
.	8a#	.	.	.
*	*	*v	*v	*v
=55	=55	=55
*M5/8	*M5/8	*M5/8
*	*^	*
[4.EE [4.D	24raa	[4.G#X [4.d [4.f#X	24r
.	24a#XLL	.	24ff#XLL 24gg#X
.	[24bJJ	.	[24ccc#XJJ [24ddd
.	4.b_	.	24ccc#LL] 24ddd]
.	.	.	24ff# 24gg#
.	.	.	[24ccc#JJ [24ddd
.	.	.	24ccc#LL] 24ddd]
.	.	.	24ff# 24gg#
.	.	.	[24ccc#JJ [24ddd
4EE] 4D]	.	4G#] 4d] 4f#]	16ccc#LL] 16ddd]
.	.	.	16ff#JJ 16gg#
.	12bL]	.	12ccc#L 12ddd
.	24a#XJk	.	24ff#Jk 24gg#
*	*v	*v	*
=56	=56	=56
8r	24bLL	24eeeLL 24fffn
.	24dd	24aan 24bb
.	[24eeJJ	[24eeeJJ [24fff
24r	4.ee_	24eeeLL] 24fff]
24bLL	.	24aa 24bb
24fnJJ	.	[24eeeJJ [24fff
24BLL	.	24eeeLL] 24fff]
24Fn	.	24aa 24bb
24GGnJJ	.	[24eeeJJ [24fff
4r	.	16eeeLL] 16fff]
.	.	16aaJJ 16bb
.	12eeL]	12eeeL 12fff
.	24ddJk	24aaJk 24bb
=57	=57	=57
24r	[4.gg	24r
24ddLL	.	24gggLL 24aaa-X
24a-XJJ	.	24cccJJ 24ddd
24dLL	.	12gggL 12aaa-
24A-X	.	.
24BB-XJJ	.	24cccJk 24ddd
8r	.	12gggL 12aaa-
.	.	24cccJk 24ddd
4r	12ggL]	12gggL 12aaa-
.	24ddJk	24cccJk 24ddd
.	24ccLL	12gggL 12aaa-
.	24.g	.
.	.	24cccJk 24ddd
.	48aJJk	.
=58	=58	=58
24r	[4.cc-X	24gggLL 24aaa-X
24fLL	.	24ccc-X 24eee--
24c-XJJ	.	[24gggJJ [24aaa-
24D-XLL	.	24gggLL] 24aaa-]
24DD-XJJ	.	24ccc- 24eee--
24r	.	[24gggJJ [24aaa-
8r	.	24gggLL] 24aaa-]
.	.	24aa-X 24ccc-
.	.	[24eeenJJ [24fff
4r	4cc-]	24eeeLL] 24fff]
.	.	24ff 24aa-
.	.	[24ddd-XJJ [24eee--
.	.	24ddd-LL] 24eee--]
.	.	24ee-- 24ff
.	.	48bb-XJJk 48ccc-
.	.	48r
=59	=59	=59
*M4/8	*M4/8	*M4/8
24r	24r	24r
24ddnLL	[12gg	24ggLL
24a-XJJ	.	[24aa-XJJ
24dLL	8gg_	4aa-_
24A-X	.	.
24BB-XJJ	.	.
4r	12ggL]	.
.	24ddJk	.
.	24ccnLL	16aa-LL]
.	24g	.
.	.	64ggLL
.	.	64aa-
.	24a-XJJ	.
.	.	64cccn
.	.	64eeenJJJJ
=60	=60	=60
*^	*	*
2bn	2AA#X 2E 2d	2r	[4.fff
.	.	.	16fffLL]
.	.	.	64ggLL
.	.	.	64gg#X
.	.	.	64ccc
.	.	.	64eeeJJJJ
=61	=61	=61	=61
8rc	4AA#X 4E 4d	2r	[16fffLL
.	.	.	64fffLL]
.	.	.	64eee
.	.	.	64ccc
.	.	.	64gg#XJJJJ
8b	.	.	[16ggnLL
.	.	.	64ggLL]
.	.	.	64gg#X
.	.	.	64ccc
.	.	.	64eeeJJJJ
8rc	8rEE	.	24fff
.	.	.	24dd-XLL
.	.	.	[24ddnJJ
.	[8qBBB-X\ [8qEE	.	.
16FLL 16f	8BBB-] 8EE]	.	16ddLL]
16G-XJJ 16g-X	.	.	64dd-XLL
.	.	.	64ddn
.	.	.	64gg-X
.	.	.	64bb-XJJJJ
=62	=62	=62	=62
2A-X 2a-X	24rEE	[4.ccc-X	2r
.	24EELL	.	.
.	[24BBB-XJJ	.	.
.	12BBB-L]	.	.
.	[24EEJk	.	.
.	12EEL]	.	.
.	24BBB-Jk	.	.
.	12EEL	16ccc-LL]	.
.	.	64dd-XLL	.
.	.	64ddn	.
.	24BBB-Jk	.	.
.	.	64gg-X	.
.	.	64bb-XJJJJ	.
=63	=63	=63	=63
*	*^	*	*
8rc	24rEE	24r	[16ccc-XLL	2r
.	[12EE	24EE/LL	.	.
.	.	.	64ccc-LL]	.
.	.	.	64bb-X	.
.	.	[24BBB-X/JJ	.	.
.	.	.	64gg-X	.
.	.	.	64ddJJJJ	.
8F 8f	4EE]	4BBB-/]	[16dd-XLL	.
.	.	.	64dd-LL]	.
.	.	.	64ddn	.
.	.	.	64gg-	.
.	.	.	64bb-JJJJ	.
8rc	.	.	24ccc-	.
.	.	.	24gnLL	.
.	.	.	[24g#XJJ	.
.	[8qAAA#X\ [8qEE	.	.	.
16BBnLL 16Bn	8AAA#] 8EE]	8r	16g#LL]	.
16CnJJ 16cn	.	.	64gnLL	.
.	.	.	64g#X	.
.	.	.	64ccn	.
.	.	.	64eeJJJJ	.
*	*v	*v	*	*
=64	=64	=64	=64
2D 2d	24rEE	[4.ff	2r
.	24EELL	.	.
.	[24AAA#XJJ	.	.
.	12AAA#L]	.	.
.	[24EEJk	.	.
.	12EEL]	.	.
.	24AAA#Jk	.	.
.	12EEL	16ffLL]	.
.	.	64gLL	.
.	.	64g#X	.
.	24AAA#Jk	.	.
.	.	64cc	.
.	.	64eeJJJJ	.
=65	=65	=65	=65
*	*^	*	*
8.DL 8.d	24rEE	24r	[8.ffL	2r
.	[12EE	24EE/LL	.	.
.	.	[24AAA#X/JJ	.	.
.	4.EE]	4.AAA#/]	.	.
16CJk 16c	.	.	64ffLLL]	.
.	.	.	64ee	.
.	.	.	64cc	.
.	.	.	64g#XJJJJ	.
8.BBL 8.B	.	.	[8.gnL	.
16CJk 16c	.	.	64gLLL]	.
.	.	.	64g#X	.
.	.	.	64cc	.
.	.	.	64eeJJJJ	.
=66	=66	=66	=66	=66
8.DL 8.d	24rEE	24r	[8.ffL	2r
.	[12EE	24EE/LL	.	.
.	.	[24AAA#X/JJ	.	.
.	4.EE]	4AAA#/]	.	.
16CJk 16c	.	.	64ffLLL]	.
.	.	.	64ee	.
.	.	.	64cc	.
.	.	.	64g#XJJJJ	.
8.BB 8.B	.	.	8.gnL	.
.	.	8r	.	.
16rc	.	.	64d-XLLL	.
.	.	.	64dn	.
.	.	.	64g-X	.
.	.	.	64b-XJJJJ	.
=67	=67	=67	=67	=67
8.A-XL	24rEE	24r	[8.cc-XL	2r
.	[12EE	24EE/LL	.	.
.	.	[24BBB-X/JJ	.	.
.	8EE]	8BBB-/]	.	.
16G-XJk	.	.	64cc-LLL]	.
.	.	.	64b-X	.
.	.	.	64g-X	.
.	.	.	64dJJJJ	.
4F	4EE	4BBB-/	4d-X	.
*	*v	*v	*	*
=68	=68	=68	=68
4F	4BBB-X 4EE 4C-X	4d-X	2r
4F	4BBB- 4EE 4C-	4d-	.
*v	*v	*	*
*	*clefF4	*
=69||	=69||	=69||
2r	8B-XL 8dn	2r
.	8EJ 8d-X	.
.	8A-XL 8cn	.
.	8DnJ 8c-X	.
=70	=70	=70
8EL 8A-X	2B-X 2dn	2r
8BB-XJ 8G	.	.
8DL 8G-X	.	.
8AA-XJ 8F	.	.
=71	=71	=71
4E 4A-X	8B-XL 8d	2r
.	8EJ 8d-X	.
4r	8A-XL 8c	.
.	8DnJ 8c-X	.
=72	=72	=72
8EL 8A-X	[2B-X [2dn	2r
8BB-XJ 8G	.	.
8DL 8G-X	.	.
8AA-XJ 8F	.	.
=73	=73	=73
8C 8E	4.B-] 4.d]	2r
4.GG-X 4.E-X	.	.
.	8B-- 8d-X	.
=74	=74	=74
*^	*	*
32GG-XKLL 32E-X	4rEE	4A-X 4c	2r
[16.DnJJ [16.G-X	.	.	.
8D] 8G-]	.	.	.
4rc	4GGG-X 4CC 4AA-X	4A- 4c 4a-X	.
=75	=75	=75	=75
2GGn	16rEE	12r	2r
.	16CCLL	.	.
.	.	[24E-X	.
.	16FFF#X	12E-L]	.
.	[16CCJJ	.	.
.	.	[24E-Jk	.
.	16CCLL]	12E-L]	.
.	16FFF#	.	.
.	.	24E-Jk	.
.	16CC	12E-L	.
.	16FFF#JJ	.	.
.	.	24E-Jk	.
=76	=76	=76	=76
2AA-X	12rEE	16E-XLL	2r
.	.	[16C	.
.	24CC	.	.
.	16GGG-XLL	16CJ]	.
.	[16CCJJ	32r	.
.	.	32EnJkk	.
.	16CCLL]	4E-X	.
.	16GGG-	.	.
.	16CC	.	.
.	16GGG-JJ	.	.
*v	*v	*	*
=77	=77	=77
2r	8A-XL 8c	2r
.	8DJ 8c-X	.
.	8G-XL 8B-X	.
.	8CnJ 8B--	.
=78	=78	=78
8DL 8G-X	2A-X 2cn	2r
8AA-XJ 8F	.	.
8CL 8F-X	.	.
8GG-XJ 8E-X	.	.
=79	=79	=79
4D 4G-X	8A-XL 8c	2r
.	8DJ 8c-X	.
4r	8G-XL 8B-X	.
.	8CnJ 8B--	.
=80	=80	=80
8DL 8G-X	[2A-X [2cn	2r
8AA-XJ 8F	.	.
8CL 8F-X	.	.
8GG-XJ 8E-X	.	.
=81	=81	=81
8BB-X 8D	4.A-] 4.c]	2r
4.FF-X 4.D-X	.	.
.	8Gn 8Bn	.
=82	=82	=82
*^	*	*
32EEKLL 32C#X	4rEE	4F#X 4A#X	2r
[16.BB#XJJ [16.E	.	.	.
8BB#] 8E]	.	.	.
4rc	4EEE 4AAA#X 4FF#X	4F# 4A# 4f#X	.
=83	=83	=83	=83
2FFn	16rEE	12r	2r
.	16AAA#XLL	.	.
.	.	[24C#X	.
.	16EEE	12C#L]	.
.	[16AAA#JJ	.	.
.	.	[24C#Jk	.
.	16AAA#LL]	12C#L]	.
.	16EEE	.	.
.	.	24C#Jk	.
.	16AAA#	12C#L	.
.	16EEEJJ	.	.
.	.	24C#Jk	.
=84	=84	=84	=84
*	*	*^	*
4.FF#X	12rEE	16C#XLL	4rEE	2r
.	.	[16AA#X	.	.
.	24AAA#X	.	.	.
.	16EEELL	16AA#J]	.	.
.	[16AAA#JJ	32r	.	.
.	.	32C##XJkk	.	.
.	16AAA#LL]	12rc	4C#X	.
.	16EEE	.	.	.
.	.	24E	.	.
8GG	16AAA#	24ELL	.	.
.	.	24E	.	.
.	16EEEJJ	.	.	.
.	.	24EJJ	.	.
*	*	*v	*v	*
=85	=85	=85	=85
4GG#X	16rEE	24ELL	2r
.	.	24C#XJ	.
.	16CC#XLL	.	.
.	.	48r	.
.	.	48E#XJkk	.
.	16GGGn	[4.En	.
.	[16CC#JJ	.	.
[4AA	16CC#LL]	.	.
.	16GGG	.	.
.	16CC#	.	.
.	16GGGJJ	.	.
=86	=86	=86	=86
2AA]	24rEE	4E_	2r
.	24CC#XLL	.	.
.	[24GGGJJ	.	.
.	12GGGL]	.	.
.	[24CC#Jk	.	.
.	12CC#L]	12EL]	.
.	24GGGJk	24EJk	.
.	16CC#LL	24ELL	.
.	.	24E	.
.	16GGGJJ	.	.
.	.	24EJJ	.
*v	*v	*	*
=87||	=87||	=87||
*	*clefG2	*
*	*^	*
.	.	16qqE\LL	.
.	.	16qqA#X\	.
.	.	16qqe\	.
.	.	16qqa#X\JJ	.
4FFF#X 4FF#X	12raa	2g#X	2r
.	12b#XL	.	.
.	[12cc#XJ	.	.
*clefG2	*	*	*
64a#XLLLL	6cc#]	.	.
64eJJJJ	.	.	.
32r	.	.	.
64f#XLLLL	.	.	.
64c#XJJJJ	.	.	.
32r	.	.	.
64a#LLLL	.	.	.
64eJJJJ	.	.	.
32r	.	.	.
.	12b#	.	.
64c#LLLL	.	.	.
64F#XJJJJ	.	.	.
32r	.	.	.
=88	=88	=88	=88
*clefF4	*	*	*
.	.	8qa#X\	.
64eLLLL	16cc#XLL	8g#X	2r
64A#XJJJJ	.	.	.
32r	.	.	.
64F#XLLLL	16eeJJ	.	.
64C#XJJJJ	.	.	.
32r	.	.	.
64A#LLLL 64e	[8ff#X	32dd#XLLL	.
64EJJJJ	.	.	.
32r	.	32cc#	.
64C#XLLLL	.	32a#X	.
64FF#XJJJJ	.	.	.
32r	.	32g#JJJ	.
64A#LLLL 64e	6ff#]	32dd#LLL	.
64EJJJJ	.	.	.
32r	.	32cc#	.
64FF#LLLL	.	32a#	.
64CC#XJJJJ	.	.	.
32r	.	32g#JJJ	.
64A#LLLL 64e	.	32dd#LLL	.
64EJJJJ	.	.	.
32r	.	32cc#	.
.	12ee	.	.
64FF#LLLL	.	32a#	.
64FFF#XJJJJ	.	.	.
32r	.	32g#JJJ	.
*	*v	*v	*
=89	=89	=89
64CCCnLLLL	8r	2r
64CCnJJJJ	.	.
32r	.	.
64GGnLLLL	.	.
64EJJJJ	.	.
32r	.	.
64CCLLLL	[8aan	.
64GGJJJJ	.	.
32r	.	.
64ELLLL	.	.
64B-XJJJJ	.	.
32r	.	.
64GGLLLL	16aaLL]	.
64EJJJJ	.	.
32r	.	.
64B-LLLL	16eeJJ	.
64eJJJJ	.	.
32r	.	.
64ELLLL	24ddnLL	.
64B-JJJJ	.	.
32r	.	.
.	24.a	.
32e	.	.
32r	.	.
.	48b-XJJk	.
=90	=90	=90
*^	*^	*
8rc	2AA 2E 2Bn	16raa	2c#X 2g 2cc#X	2r
.	.	64ff#XLLLL 64gg	.	.
.	.	64bJJJJ 64cc#	.	.
.	.	32raa	.	.
16qqG/LL	.	.	.	.
16qqc#X/JJ	.	.	.	.
[8f#X	.	64bLLLL 64cc#	.	.
.	.	64ff#JJJJ 64gg	.	.
.	.	32raa	.	.
.	.	64ff#LLLL 64gg	.	.
.	.	64bJJJJ 64cc#	.	.
.	.	32raa	.	.
16f#LL]	.	64bLLLL 64cc#	.	.
.	.	64ff#JJJJ 64gg	.	.
.	.	32raa	.	.
16c#JJ	.	64ff#LLLL 64gg	.	.
.	.	64bJJJJ 64cc#	.	.
.	.	32raa	.	.
24BLL	.	64bLLLL 64cc#	.	.
.	.	64ff#JJJJ 64gg	.	.
.	.	32raa	.	.
24F#X	.	.	.	.
.	.	64ff#LLLL 64gg	.	.
.	.	64bJJJJ 64cc#	.	.
24GJJ	.	.	.	.
.	.	32raa	.	.
=91	=91	=91	=91	=91
.	.	.	16qqc#X\LL	.
.	.	.	16qqf#X\JJ	.
2A#X	8rEE	12raa	2g#X	2r
.	.	12b#XL	.	.
.	64a#XLLLL	.	.	.
.	64eJJJJ	.	.	.
.	32rEE	.	.	.
.	.	[12cc#XJ	.	.
.	64c#XLLLL	.	.	.
.	64F#XJJJJ	.	.	.
.	32rEE	.	.	.
.	64eLLLL	6cc#]	.	.
.	64A#JJJJ	.	.	.
.	32rEE	.	.	.
.	64F#LLLL	.	.	.
.	64C#XJJJJ	.	.	.
.	32rEE	.	.	.
.	64A#LLLL 64e	.	.	.
.	64EJJJJ	.	.	.
.	32rEE	.	.	.
.	.	12b#	.	.
.	64C#LLLL	.	.	.
.	64FF#XJJJJ	.	.	.
.	32rEE	.	.	.
=92	=92	=92	=92	=92
8rc	2GGn 2Cn 2B-X 2e	24dd-XLL	2a-X	2r
.	.	24ee	.	.
.	.	[24ff#XJJ	.	.
4.d-X	.	4ff#]	.	.
.	.	8een	.	.
*	*	*v	*v	*
*	*	*clefF4	*
=93	=93	=93	=93
[2GG#X	16rEE	12r	2r
.	16CC#XLL	.	.
.	.	[24E	.
.	16FFF##X	12EL]	.
.	[16CC#JJ	.	.
.	.	[24EJk	.
.	16CC#LL]	12EL]	.
.	16FFF##	.	.
.	.	24EJk	.
.	16CC#	12EL	.
.	16FFF##JJ	.	.
.	.	24EJk	.
=94	=94	=94	=94
2GG#]	16rEE	24ELL	2r
.	.	24C#XJ	.
.	16CC#XLL	.	.
.	.	48r	.
.	.	48E#XJkk	.
.	16FFF##X	4.En	.
.	[16CC#JJ	.	.
.	16CC#LL]	.	.
.	16FFF##	.	.
.	16CC#	.	.
.	16FFF##JJ	.	.
*v	*v	*	*
=95	=95	=95
*	*clefG2	*
24r	24r	2r
24a-XLL	24ccnLL	.
24f-XJJ	[24dd-XJJ	.
24B-XLL	4dd-_	.
24F-X	.	.
24GG-XJJ	.	.
24GGnLL	.	.
24Cn	.	.
24B-JJ	.	.
24eLL	12dd-L]	.
24gnJJ	.	.
24r	24ccJk	.
*	*clefF4	*
=96	=96	=96
*^	*	*
2GG#X	16rEE	24ELL	2r
.	.	24C#XJ	.
.	16CC#XLL	.	.
.	.	48r	.
.	.	48E#XJkk	.
.	16FFF##X	[8En	.
.	[16CC#JJ	.	.
.	16CC#LL]	12EL]	.
.	16FFF##	.	.
.	.	24EJk	.
.	16CC#	24ELL	.
.	.	24E	.
.	16FFF##JJ	.	.
.	.	24EJJ	.
*v	*v	*	*
*	*clefG2	*
=97	=97	=97
24r	24r	2r
24a-XLL	24ccnLL	.
24f-XJJ	[24dd-XJJ	.
24B-XLL	4dd-_	.
24F-X	.	.
24GG-XJJ	.	.
24GGnLL	.	.
24Cn	.	.
24B-JJ	.	.
24eLL	12dd-L]	.
24gnJJ	.	.
24r	24ccJk	.
=98	=98	=98
24r	24cc#XLL	2r
24bnLL	24ee	.
24gJJ	[24ff#XJJ	.
24c#XLL	4ff#_	.
24G	.	.
24AAJJ	.	.
24AA#XLL	.	.
24D#X	.	.
24c#JJ	.	.
24f##XLL	12ff#L]	.
24a#XJJ	.	.
24r	24eeJk	.
=99	=99	=99
24r	24r	2r
24ddnLL	[12aan	.
24b-XJJ	.	.
24eLL	4aa_	.
24B-X	.	.
24CnJJ	.	.
24C#XLL	.	.
24F#X	.	.
24eJJ	.	.
24a#XLL	12aaL]	.
24cc#XJJ	.	.
24r	[24aanJk	.
=100	=100	=100
24ELL	8aa_	2r
24An	.	.
24gJJ	.	.
24cc#XLL	12aaL]	.
24eeJJ	.	.
24r	[24aaJk	.
24GLL	8aa_	.
24cn	.	.
24b-XJJ	.	.
24eeLL	12aaL]	.
24ggJJ	.	.
24r	[24aaJk	.
=101	=101	=101
*clefG2	*	*
*^	*	*
*	*^	*	*
*	*	*^	*	*
8raa	24B-XLL	24r	[12.B-/	12aaL]	2r
.	24e	[12e/	.	.	.
.	[24g-XJJ	.	.	[24aaJk	.
4dd-X	4.g-]	4.e/]	4.B-/]	12aaL]	.
.	.	.	.	[24aaJk	.
.	.	.	.	12aaL]	.
.	.	.	.	24eeJk	.
16ddn	.	.	.	24ddnLL	.
.	.	.	.	24a	.
16raa	.	.	.	.	.
.	.	.	.	24b-XJJ	.
*v	*v	*v	*v	*	*
*clefF4	*	*
=102	=102	=102
*^	*^	*
2F-X	16EE-XLL 16AA	2f-X 2a 2dd-X	12cL	2r
.	16AA	.	.	.
.	.	.	[24cJk	.
.	16EE-	.	12cL]	.
.	[16AAJJ	.	.	.
.	.	.	[24cJk	.
.	16AALL]	.	12cL]	.
.	16EE-	.	.	.
.	.	.	24cJk	.
.	16AA	.	24cLL	.
.	.	.	24c	.
.	16EE-JJ	.	.	.
.	.	.	24cJJ	.
*v	*v	*	*	*
*	*v	*v	*
*clefG2	*	*
=103	=103	=103
*^	*	*
*	*^	*	*
*	*	*^	*	*
8raa	24B-XLL	24r	[8B-/	12r	2r
.	24e	[12en/	.	.	.
.	[24g-XJJ	.	.	[24aa	.
4dd-X	4.g-]	4.e/]	4.B-/]	12aaL]	.
.	.	.	.	[24aaJk	.
.	.	.	.	12aaL]	.
.	.	.	.	24eeJk	.
16ddn	.	.	.	24ddnLL	.
.	.	.	.	24a	.
16raa	.	.	.	.	.
.	.	.	.	24b-XJJ	.
*v	*v	*v	*v	*	*
=104	=104	=104
*clefF4	*	*
*^	*^	*
4F-X	16EE-XLL 16AA	4f-X 4a 4dd-X	12cL	2r
.	16AA	.	.	.
.	.	.	[24cJk	.
.	16EE-	.	12cL]	.
.	16AAJJ	.	.	.
.	.	.	24cJk	.
*clefG2	*	*	*	*
8dd-XL	4B-X 4en 4g-X	24raa	4rc	.
.	.	24aaLL	.	.
.	.	24eeJJ	.	.
16ddnJk	.	24ddnLL	.	.
.	.	24a	.	.
16raa	.	.	.	.
.	.	24b-XJJ	.	.
*v	*v	*	*	*
*	*v	*v	*
*clefF4	*	*
=105||	=105||	=105||
*	*	*^
4E-X 4fn	4r	4dd-X	16rc
.	.	.	8gL 8cc-X
.	.	.	16d-XJk 16b-X
24d-XLL	8d-XL 8f	4raa	16rc
24G	.	.	.
.	.	.	8gL 8cc-
24E-JJ	.	.	.
8r	8GJ 8f-X	.	.
.	.	.	16d-Jk 16b-
*	*	*v	*v
=106	=106	=106
24enLL	8enL 8a-X	16r
24B-X	.	.
.	.	8b-XL 8ddn
24CnJJ	.	.
8r	8B-XJ 8g	.
.	.	16eJk 16dd-X
32gLLL	8gL 8bn	16r
32c#X	.	.
32G	.	8cc#XL 8ff
32AAnJJJ	.	.
8r	8c#XJ 8b-X	.
.	.	16gJk 16ee
=107	=107	=107
40a#XLLL	8a#XL 8dd	16r
40e	.	.
40A#X	.	.
.	.	8eeL 8gg#X
40E	.	.
40FF#XJJJ	.	.
8r	8eJ 8cc#X	.
.	.	16a#XJk 16ggn
24e-XLL	8e-XL 8g	16r
24An	.	.
.	.	8anL 8dd-X
24FnJJ	.	.
8r	8AnJ 8g-X	.
.	.	16e-XJk 16ccn
=108	=108	=108
24f#XLL	8f#XL 8b-X	16r
24cn	.	.
.	.	8ccL 8een
24DnJJ	.	.
8r	8cJ 8a	.
.	.	16f#XJk 16ee-X
32aLLL	8aL 8cc#X	16r
32d#X	.	.
32A	.	8dd#XL 8gg
32BBnJJJ	.	.
8r	8d#XJ 8ccn	.
.	.	16aJk 16ff#X
=109	=109	=109
*^	*	*
40ccLLL	4rEE	8ccL 8ff-X	16r
40g-X	.	.	.
40c	.	.	.
.	.	.	8gg-XL 8bb-X
40G-X	.	.	.
40AA-XJJJ	.	.	.
8rc	.	8g-XJ 8ee-X	.
.	.	.	16ccJk 16bb--
[4An	[4GG#X [4D	[4f#X [4cc	[4een [4gg#X
=110	=110	=110	=110
*	*	*^	*
2A]	16GG#LL] 16D]	2f#] 2cc]	12rc	2ee] 2gg#]
.	16D	.	.	.
.	.	.	[24c	.
.	16GG#X	.	12cL]	.
.	[16DJJ	.	.	.
.	.	.	[24cJk	.
.	16DLL]	.	12cL]	.
.	16GG#	.	.	.
.	.	.	24cJk	.
.	16D	.	12cL	.
.	16GG#JJ	.	.	.
.	.	.	24cJk	.
=111	=111	=111	=111	=111
4GG#X 4F#X	4rEE	16.raa	4c	2r
.	.	32a#X	.	.
.	.	12f#XL	.	.
.	.	24anJk	.	.
[4A	[4GG# [4D	[4e [4g#X	[4c	.
=112	=112	=112	=112	=112
2A]	16GG#LL] 16D]	2e] 2g#]	12cL]	2r
.	16D	.	.	.
.	.	.	[24cJk	.
.	16GG#X	.	12cL]	.
.	[16DJJ	.	.	.
.	.	.	[24cJk	.
.	16DLL]	.	12cL]	.
.	16GG#	.	.	.
.	.	.	24cJk	.
.	16D	.	24cLL	.
.	.	.	24c	.
.	16GG#JJ	.	.	.
.	.	.	24cJJ	.
*v	*v	*	*	*
=113	=113	=113	=113
4GG#X 4F#X	16.raa	16.rc	2r
.	32a#X	[32B#X	.
.	12f#XL	8B#]	.
.	24anJk	.	.
4AA 4D	16.raa	16.rc	.
.	32g#X	[32c	.
.	12eL	8c]	.
.	24gnJk	.	.
=114	=114	=114	=114
4GG#X 4F#X	16.raa	16.rc	2r
.	32a#X	[32B#X	.
.	12f#XL	8B#]	.
.	24anJk	.	.
4AA 4D	16.raa	16.rc	.
.	32g#X	[32c	.
.	12eL	8c]	.
.	24gnJk	.	.
=115	=115	=115	=115
4GG#X 4F#X 4B#X	16raa	16.rc	2r
.	16cc##X	.	.
.	.	32a#X	.
.	4dd#X	12f#XL	.
.	.	24anJk	.
4AA 4Dn 4cn	.	16.rc	.
.	.	32b-X	.
.	8ddn	12f#L	.
.	.	24aJk	.
=116	=116	=116	=116
*	*	*^	*
8GG#X 8F#X 8B#X	16dd#XLL	8rc	16.r	2r
.	16ff#XJJ	.	.	.
.	.	.	32a#X\	.
4.CC##X 4.GG# 4.F# 4.B#	4gg#X	24ee#XLL	12f#X/L	.
.	.	24dd#	.	.
.	.	24b#XJJ	24an/Jk	.
.	.	24ee#LL	16.r	.
.	.	24dd#	.	.
.	.	24b#JJ	.	.
.	.	.	32a#X/	.
.	8ff#	24ee#LL	12f#/L	.
.	.	24dd#	.	.
.	.	24b#JJ	24an/Jk	.
*	*	*v	*v	*
=117	=117	=117	=117
*^	*	*	*
*	*^	*	*	*
4rc	2F#X	16r	16.raa	16.rc	2r
.	.	16GG#X/LL	.	.	.
.	.	.	32a#X	[32B#X	.
.	.	16CC##X/	12f#XL	8B#_	.
.	.	[16GG#/JJ	.	.	.
.	.	.	[24anJk	.	.
12rc	.	16GG#/LL]	4a]	4B#]	.
.	.	16CC##/	.	.	.
24D#X	.	.	.	.	.
12D#L	.	16GG#/	.	.	.
.	.	16CC##/JJ	.	.	.
24D#Jk	.	.	.	.	.
=118	=118	=118	=118	=118	=118
4rc	2F#X	16r	16.raa	16.rc	2r
.	.	16GG#X/LL	.	.	.
.	.	.	32a#X	[32B#X	.
.	.	16CC##X/	12f#XL	8B#_	.
.	.	[16GG#/JJ	.	.	.
.	.	.	[24anJk	.	.
12rc	.	16GG#/LL]	4a]	4B#]	.
.	.	16CC##/	.	.	.
24D#X	.	.	.	.	.
12D#L	.	16GG#/	.	.	.
.	.	16CC##/JJ	.	.	.
24D#Jk	.	.	.	.	.
*v	*v	*v	*	*	*
=119||	=119||	=119||	=119||
24B#XLL	16raa	16.rc	2r
24F#X	.	.	.
.	16cc##X	.	.
24GG#XJJ	.	.	.
.	.	32a#X	.
8r	4dd#X	12f#XL	.
.	.	24anJk	.
4AA 4Dn 4cn	.	16.rc	.
.	.	32b-X	.
.	8ddn	12f#L	.
.	.	24aJk	.
=120	=120	=120	=120
4C 4G-X 4d-X	[4dd-X	16.rc	2r
.	.	32b-X	.
.	.	12g-XL	.
.	.	24b--Jk	.
4E-X 4An 4f-X	8dd-_	16.rc	.
.	.	32a-X	.
.	12dd-L]	12f-XL	.
.	24ccJk	24gnJk	.
=121	=121	=121	=121
*^	*	*	*
*	*^	*	*	*
2rc	[2F-X	16r	12raa	12rc	2r
.	.	16AA\LL	.	.	.
.	.	.	[24c	[24G	.
.	.	16EE-X\	12cL]	4.G_	.
.	.	[16AA\JJ	.	.	.
.	.	.	[24cJk	.	.
.	.	16AA\LL]	12cL]	.	.
.	.	16EE-\	.	.	.
.	.	.	24cJk	.	.
.	.	16AA\	12cL	.	.
.	.	[16EE-\JJ	.	.	.
.	.	.	24cJk	.	.
=122	=122	=122	=122	=122	=122
4rc	4F-_	16EE-\LL]	24cLL	4G_	2r
.	.	.	24A	.	.
.	.	16AA\	.	.	.
.	.	.	24c#XJJ	.	.
.	.	16EE-X\	[8cn	.	.
.	.	16AA\JJ	.	.	.
16rc	16F-LL]	8EE-\	16c]	16G]	.
8A	[16E-XJJ	.	16cc	8g	.
.	8E-]	8r	16dd-XLL	.	.
16A-X	.	.	16ddnJJ	16g-X	.
*v	*v	*v	*	*	*
=123	=123	=123	=123
24d#XLL	16dd#XLL	16.rc	2r
24An	.	.	.
.	16ff#XJJ	.	.
24BBJJ	.	.	.
.	.	32cc#X	.
8r	4gg#X	12aL	.
.	.	24ccnJk	.
4C 4Fn 4e-X	.	16.rc	.
.	.	32dd-X	.
.	16.gg-XLL	12aL	.
.	.	24ccJk	.
.	32ffnJJk	.	.
=124	=124	=124	=124
4D#X 4A 4en	[4een	16.rc	2r
.	.	32cc#X	.
.	.	12aL	.
.	.	24ccnJk	.
4F#X 4B#X 4gn	8ee_	16.rc	.
.	.	32bn	.
.	12eeL]	12gnL	.
.	24dd#XJk	24a#XJk	.
=125	=125	=125	=125
*^	*	*	*
*	*^	*	*	*
2rc	[2G	16r	12raa	12rc	2r
.	.	16BB#X\LL	.	.	.
.	.	.	[24d#X	[24A#X	.
.	.	16FF#X\	12d#L]	4.A#_	.
.	.	[16BB#\JJ	.	.	.
.	.	.	[24d#Jk	.	.
.	.	16BB#\LL]	12d#L]	.	.
.	.	16FF#\	.	.	.
.	.	.	24d#Jk	.	.
.	.	16BB#\	12d#L	.	.
.	.	[16FF#\JJ	.	.	.
.	.	.	24d#Jk	.	.
=126	=126	=126	=126	=126	=126
4rc	4G_	16FF#\LL]	24d#XLL	4A#_	2r
.	.	.	24B#X	.	.
.	.	16BB#X\	.	.	.
.	.	.	24d##XJJ	.	.
.	.	16FF#X\	[8d#X	.	.
.	.	16BB#\JJ	.	.	.
16rc	16GLL]	8FF#\	16d#]	16A#]	.
8B#X	[16F#XJJ	.	16dd#X	8a#X	.
.	8F#]	8r	16eeLL	.	.
16Bn	.	.	16ee#XJJ	16an	.
*v	*v	*v	*	*	*
*	*v	*v	*
=127	=127	=127
24DnLL	8r	2r
24c	.	.
24f#XJJ	.	.
.	8qeen/	.
8r	[8bb	.
24ccLL	12bbL]	.
24f#JJ	.	.
24r	24ff#XJk	.
8r	24eeLL	.
.	24b	.
.	24ccJJ	.
=128	=128	=128
*^	*^	*
*	*	*	*^	*
4BB 4G-X	32BBKLL	16.raa	4g-X	16.r	2r
.	[16.FFnJJ	.	.	.	.
.	.	32ee-X	.	[32d\	.
.	8FF]	12bL	.	8d\]	.
.	.	24ddJk	.	.	.
4D 4A	32DKLL	16.raa	4f	16.r	.
.	[16.GG#XJJ	.	.	.	.
.	.	32cc#X	.	[32d\	.
.	8GG#]	12aL	.	8d\]	.
.	.	24ccnJk	.	.	.
*v	*v	*	*	*	*
*	*v	*v	*v	*
=129	=129	=129
24DLL	8r	2r
24c	.	.
24f#XJJ	.	.
.	8qeen/	.
8r	[8bb	.
24ccLL	12bbL]	.
24f#JJ	.	.
24r	24ff#XJk	.
8r	24eeLL	.
.	24b	.
.	24ccJJ	.
=130	=130	=130
*^	*^	*
*	*	*	*^	*
4BB 4G-X	32BBKLL	16.raa	4g-X	16.r	2r
.	[16.FFnJJ	.	.	.	.
.	.	32ee-X	.	[32d\	.
.	8FF]	12bL	.	8d\]	.
.	.	24ddJk	.	.	.
4D 4A	32DKLL	16.raa	4f	16.r	.
.	[16.GG#XJJ	.	.	.	.
.	.	32cc#X	.	[32d\	.
.	8GG#]	12aL	.	8d\]	.
.	.	24ccnJk	.	.	.
=131	=131	=131	=131	=131	=131
4D 4B--	32DKLL	16.raa	4b--	16.r	2r
.	[16.AA-XJJ	.	.	.	.
.	.	32gg-X	.	[32f\	.
.	8AA-]	12ddL	.	8f\]	.
.	.	24ffJk	.	.	.
4F 4c	32FKLL	16.raa	4a-X	16.r	.
.	[16.BBnJJ	.	.	.	.
.	.	32ee	.	[32f\	.
.	8BB]	12ccL	.	8f\]	.
.	.	24ee-XJk	.	.	.
=132	=132	=132	=132	=132	=132
4E#X 4c	32E#KLL	16.raa	4cc	16.r	2r
.	[16.BBJJ	.	.	.	.
.	.	32aa	.	[32g#X\	.
.	8BB]	12ee#XL	.	8g#/]	.
.	.	24gg#XJk	.	.	.
4C##X 4G#X 4d#X	8rEE	4g# 4dd#X 4ff##X	12rc	8r	.
.	.	.	24b	.	.
.	8rEE	.	12bL	8r	.
.	.	.	24bJk	.	.
=133	=133	=133	=133	=133	=133
4E#X 4c	32E#KLL	16.raa	4cc	16.r	2r
.	[16.BBJJ	.	.	.	.
.	.	32aa	.	[32g#X\	.
.	8BB]	12ee#XL	.	8g#/]	.
.	.	24gg#XJk	.	.	.
4C##X 4G#X 4d#X	8rEE	4g# 4dd#X 4ff##X	12rc	8r	.
.	.	.	24b	.	.
.	8rEE	.	12bL	8r	.
.	.	.	24bJk	.	.
*	*	*v	*v	*v	*
=134	=134	=134	=134
8rc	8rEE	24bLL	2r
.	.	24g#X	.
.	.	24b#XJJ	.
8d#X	4C##X 4G#X	4.bn	.
8enL	.	.	.
8fnJ	8C## 8Gn	.	.
*v	*v	*	*
=135	=135	=135
*	*^	*
8r	16.raa	16.rc	2r
.	32ee-X	[32f	.
8Dn 8G	12bL	8f]	.
.	24ddJk	.	.
8D-XL 8c-X	16.raa	16.rc	.
.	32dd-X	[32f	.
8DnJ 8G	12aL	8f]	.
.	24ccnJk	.	.
=136	=136	=136	=136
8D-XL 8c-X	16.raa	16.rc	2r
.	32ee-X	[32f	.
8DnJ 8G	12bL	8f]	.
.	24ddnJk	.	.
8D-XL 8c-	16.raa	16.rc	.
.	32dd-X	[32f	.
8DnJ 8G	12aL	8f]	.
.	24ccnJk	.	.
=137||	=137||	=137||	=137||
*^	*	*	*
4f	8D-XL 8c-X	16raa	16.rc	2r
.	.	16gg	.	.
.	.	.	32ee-X	.
.	8DnJ 8G	4aa-X	12bL	.
.	.	.	24ddnJk	.
4f	8D-XL 8c-	.	16.rc	.
.	.	.	32ee-	.
.	8DnJ 8G	8gg	12bL	.
.	.	.	24ddJk	.
=138	=138	=138	=138	=138
4g#X	8EnL 8d	16gg#XLL	16.rc	2r
.	.	16bbJJ	.	.
.	.	.	32ff#X	.
.	8E#XJ 8A#X	4ccc#X	12cc##XL	.
.	.	.	24ee#XJk	.
4g#	8EnL 8d	.	16.rc	.
.	.	.	32ff#	.
.	8E#XJ 8A#	8bb	12cc##L	.
.	.	.	24ee#Jk	.
*	*	*v	*v	*
*clefG2	*	*	*
=139	=139	=139	=139
16Gn 16fn 16b	8rc	24r	2r
.	.	24eeenLL	.
16raa	.	.	.
.	.	24bbJJ	.
8raa	8rc	24aanLL	.
.	.	24een	.
.	.	24ffnJJ	.
4B-X 4en 4cc-X	12rc	4dd 4ee 4aa-X	.
.	24cc-	.	.
.	12cc-L	.	.
.	24cc-Jk	.	.
=140	=140	=140	=140
*clefF4	*	*	*
16GG 16F 16Bn	8rEE	24r	2r
.	.	24eeLL	.
16rc	.	.	.
.	.	24bJJ	.
8rc	8rEE	24aLL	.
.	.	24e	.
.	.	24fJJ	.
4BB-X 4E 4c-X	12rEE	4d 4e 4a-X	.
.	24c-	.	.
.	12c-L	.	.
.	24c-Jk	.	.
=141	=141	=141	=141
24c-XLL	4rEE	2r	2r
24A-X	.	.	.
24cnJJ	.	.	.
[4.c-X	.	.	.
.	8E-XL 8G	.	.
.	8BB--J 8G-X	.	.
=142	=142	=142	=142
2c-]	8D-XL 8F	2r	2r
.	8BB--J 8G-X	.	.
.	8E-XL 8Gn	.	.
.	8C-XJ 8A-X	.	.
=143	=143	=143	=143
8BnL 8e-X	8F 8An	12r	2r
.	.	[24f	.
8FJ 8d	8rEE	12fL]	.
.	.	[24fJk	.
8AL 8d-X	4rEE	12fL]	.
.	.	24fJk	.
8E-XJ 8c	.	24fLL	.
.	.	24f	.
.	.	24fJJ	.
*v	*v	*	*
=144	=144	=144
*	*^	*
8GL 8B	8raa	24fLL	2r
.	.	24d	.
.	.	24f#XJJ	.
8D-XJ 8B-X	24raa	[4.fn	.
.	24dd-XLL	.	.
.	24dd-JJ	.	.
8FL 8A	24dd-LL	.	.
.	24dd-	.	.
.	24dd-JJ	.	.
8C-XJ 8A-X	24dd-LL	.	.
.	24dd-	.	.
.	24dd-JJ	.	.
=145	=145	=145	=145
8E-X 8G	24dd-XLL	8f]	2r
.	24b-X	.	.
.	24ddnJJ	.	.
4.AAn 4.F#X	4c#X 4e#X 4cc#X	4rc	.
.	8cn 8en 8ccn	8rc	.
=146	=146	=146	=146
32AAKLL 32F#X	16.B 16.d#X 16.b	16.rc	2r
16E#XJJ 16A	.	.	.
32r	32ff-X	[32g	.
20AALL	12ccL	8g_	.
20E-X	.	.	.
.	[24ee-XJk	.	.
20B-X	.	.	.
.	16.ee-LL]	16.gLL]	.
20A	.	.	.
20e-XJJ	.	.	.
.	32ff-JJk	[32gJJk	.
8b-X	12ccL	8g]	.
.	24ee-Jk	.	.
*	*v	*v	*
=147	=147	=147
8AL 8d-X	12r	2r
.	24e-X	.
8E-XJ 8c	24e-LL	.
.	24e-	.
.	24e-JJ	.
8GL 8c-X	24e-LL	.
.	24e-	.
.	24e-JJ	.
8D-XJ 8B-X	24e-LL	.
.	24e-	.
.	24e-JJ	.
=148	=148	=148
*	*^	*
8FL 8A	8raa	24e-XLL	2r
.	.	24c	.
.	.	24enJJ	.
8C-XJ 8A-X	24raa	[4.e-X	.
.	24cc-XLL	.	.
.	24cc-JJ	.	.
8E-XL 8G	24cc-LL	.	.
.	24cc-	.	.
.	24cc-JJ	.	.
8BB--J 8G-X	24cc-LL	.	.
.	24cc-	.	.
.	24cc-JJ	.	.
=149	=149	=149	=149
8D-X 8F	24cc-XLL	4e-]	2r
.	24a-X	.	.
.	24ccnJJ	.	.
4.GG 4.En	4B 4d#X 4b	.	.
.	.	4rc	.
.	8B-X 8dn 8b-X	.	.
=150	=150	=150	=150
32GGKLL 32E	16.A 16.c#X 16.a	16.rc	2r
16D#XJJ 16G	.	.	.
32r	32ee--	[32f	.
20GGLL	12b-XL	8f_	.
20D-X	.	.	.
.	[24dd-XJk	.	.
20A-X	.	.	.
.	16.dd-LL]	16.fLL]	.
20G	.	.	.
20d-XJJ	.	.	.
.	32ee--JJk	[32fJJk	.
8a-X	12b-L	8f]	.
.	24dd-Jk	.	.
*	*v	*v	*
=151	=151	=151
8r	8r	2r
4GG 4E-X	8B-X 8dn 8b-X	.
.	8AnL 8c#X 8an	.
8FF#X 8Dn	8A-XJ 8cn 8a-X	.
=152	=152	=152
*	*^	*
32FFnKLL 32D	16.G 16.Bn 16.g	16.rc	2r
16C#XJJ 16F	.	.	.
32r	32ccn	[32d#X	.
20EE#XLL	12g#XL	8d#_	.
20BB	.	.	.
.	[24bJk	.	.
20F#X	.	.	.
.	16.bLL]	16.d#LL]	.
20E#X	.	.	.
20BJJ	.	.	.
.	32ccJJk	[32d#JJk	.
8f#X	12g#L	8d#]	.
.	24bJk	.	.
=153	=153	=153	=153
32FnKLL 32dn	16.raa	4rc	2r
[16.c#XJJ [16.fn	.	.	.
.	32b	.	.
16c#] 16f]	12gnL	.	.
32r	.	.	.
.	[24b-XJk	.	.
32EE	.	.	.
32AA#XLLL	16b-KL]	16.rc	.
32F	.	.	.
32E	32r	.	.
32A#XJJJ	32ddJkk	[32c#X	.
8f	12a#XL	8c#]	.
.	24cc#XJk	.	.
=154	=154	=154	=154
32FKLL 32d	16.raa	16.rc	2r
[16.c#XJJ [16.f	.	.	.
.	32ff	[32g [32bn	.
16c#] 16f]	12cc#XL	8g_ 8b_	.
32r	.	.	.
.	[24eeJk	.	.
32CC#X	.	.	.
32GGLLL	16eeKL]	16.gLL] 16.b]	.
32D	.	.	.
32C#X	32r	.	.
32GJJJ	32aa-XJkk	[32gJJk [32b	.
8d	12eeL	8g] 8b]	.
.	24ggJk	.	.
*	*v	*v	*
=155||	=155||	=155||
*^	*	*
32FKLL 32d	4rEE	16ggLL 16bb	2r
[16.c#XJJ [16.f	.	.	.
.	.	16cc#X 16bb-X	.
4.c#_ 4.f_	.	16ff 16aan	.
.	.	16bnJJ 16aa-X	.
.	20FFFLL	16ggLL 16bbn	.
.	20BBBn	.	.
.	.	16cc# 16bb-X	.
.	20GG	.	.
.	.	16ff 16aan	.
.	20FF	.	.
.	.	16bnJJ 16aa-X	.
.	20BBJJ	.	.
=156	=156	=156	=156
2c#] 2f]	20GLL	16ee-XLL 16gg	2r
.	20BB	.	.
.	.	16an 16ff#X	.
.	20FF	.	.
.	.	16cc#X 16ffn	.
.	20GG	.	.
.	.	16gJJ 16een	.
.	20BBBJJ	.	.
.	8FFF	16bLL 16ee-X	.
.	.	16f 16dd	.
.	8rEE	16a 16dd-X	.
.	.	16e-XJJ 16ccn	.
=157	=157	=157	=157
32FFKLL 32Dn	4rEE	16gLL 16b	2r
[16.C#XJJ [16.F	.	.	.
.	.	16c#X 16b-X	.
4.C#_ 4.F_	.	16f 16an	.
.	.	16BnJJ 16a-X	.
.	20FFFLL	16gLL 16bn	.
.	20BBBn	.	.
.	.	16c# 16b-X	.
.	20GG	.	.
.	.	16f 16an	.
.	20FF	.	.
.	.	16BnJJ 16a-X	.
.	20BBJJ	.	.
=158	=158	=158	=158
2C#] 2F]	20GLL	16e-XLL 16g	2r
.	20BB	.	.
.	.	16An 16f#X	.
.	20FF	.	.
.	.	16c#X 16fn	.
.	20GG	.	.
.	.	16GJJ 16en	.
.	20BBBJJ	.	.
*	*	*clefF4	*
.	8FFF	16BLL 16e-X	.
.	.	16F 16d	.
.	8rEE	16A 16d-X	.
.	.	16E-XJJ 16cn	.
*v	*v	*	*
=159	=159	=159
2r	16GLL 16B	4r
.	16C#X 16B-X	.
.	16F 16A	.
.	16BBnJJ 16A-X	.
.	16GLL 16Bn	24r
.	.	24c#XLL
.	16C# 16B-X	.
.	.	24c#JJ
.	16F 16An	24c#LL
.	.	24c#
.	16BBnJJ 16A-X	.
.	.	24c#JJ
=160	=160	=160
2r	16GLL 16Bn	16c#XLL
.	16C#X 16B-X	32B-XL
.	.	32dJJJ
.	16F 16An	4.c#
.	16BBnJJ 16A-X	.
.	16GLL 16Bn	.
.	16C# 16B-X	.
.	16F 16An	.
.	16BBnJJ 16A-X	.
=161	=161	=161
8FFF 8FF	16GLL 16Bn	4r
.	16C#X 16B-X	.
8r	16F 16An	.
.	16BBnJJ 16A-X	.
4r	16GLL 16Bn	24r
.	.	24c#XLL
.	16C# 16B-X	.
.	.	24c#JJ
.	16F 16An	24c#LL
.	.	24c#
.	16BBnJJ 16A-X	.
.	.	24c#JJ
=162	=162	=162
2r	16GLL 16Bn	16c#XLL
.	16C#X 16B-X	32B-XL
.	.	32dJJJ
.	16F 16An	4.c#
.	16BBnJJ 16A-X	.
.	16GLL 16Bn	.
.	16C# 16B-X	.
.	16F 16An	.
.	16BBnJJ 16A-X	.
*	*clefG2	*
=163	=163	=163
8E-XL 8Bn	16fLL 16an	2r
.	16B 16a-X	.
8FFFJ 8FF	16e-X 16g	.
.	16AnJJ 16g-X	.
16BLL 16e-X	[4f [4an	.
16F 16d	.	.
16A 16d-X	.	.
16E-JJ 16c	.	.
=164	=164	=164
16B 16e-X	16fLL] 16a]	2r
16r	16B 16a-X	.
8r	16e-X 16g	.
.	16AnJJ 16g-X	.
16BLL 16e-	4r	.
16F 16d	.	.
16A 16d-X	.	.
16E-XJJ 16c	.	.
=165	=165	=165
16GnLL 16B	16.r	2r
16D-XJJ 16B-X	.	.
.	32a	.
8FF	12fL	.
.	24a-XJk	.
32D-KLL 32B-	16.r	.
[16.AnJJ [16.d-X	.	.
.	32g	.
8A] 8d-]	12e-XL	.
.	24g-XJk	.
=166	=166	=166
*^	*	*
12FFL	2FFF	32D-XKLL 32B-X	2r
.	.	[16.AnJJ [16.d-X	.
24FFJk	.	.	.
24FFLL	.	8A] 8d-]	.
24FF	.	.	.
24FFJJ	.	.	.
12FFL	.	32D-KLL 32B-	.
.	.	[16.AJJ [16.d-	.
24FFJk	.	.	.
24FFLL	.	8A] 8d-]	.
24FF	.	.	.
24FFJJ	.	.	.
*v	*v	*	*
=167	=167	=167
8D-XL 8A	16e-XLL 16g	2r
.	16A 16g-X	.
8FFFJ 8FF	16d-X 16f	.
.	16GnJJ 16f-X	.
16ALL 16d-X	[4e- [4gn	.
16E-X 16c	.	.
16G 16c-X	.	.
16D-JJ 16B-X	.	.
=168	=168	=168
16A 16d-X	16e-LL] 16g]	2r
16r	16A 16g-X	.
8r	16d-X 16fn	.
.	16GnJJ 16f-X	.
16ALL 16d-	4r	.
16E-X 16c	.	.
16G 16c-X	.	.
16D-XJJ 16B-X	.	.
=169	=169	=169
16FnLL 16A	16.r	2r
16C-XJJ 16A-X	.	.
.	32g	.
8FF	12e-XL	.
.	24g-XJk	.
32C-KLL 32A-	16.r	.
[16.GnJJ [16.c-X	.	.
.	32f	.
8G] 8c-]	12d-XL	.
.	24f-XJk	.
=170	=170	=170
*	*clefF4	*
*^	*	*
12FFnL	2FFFn	32C-XKLL 32A-X	2r
.	.	[16.C-JJ [16.G [16.c-X	.
24FFJk	.	.	.
24FFLL	.	8C-] 8G] 8c-]	.
24FF	.	.	.
24FFJJ	.	.	.
12FFL	.	32C-KLL 32A-	.
.	.	[16.C-JJ [16.G [16.c-	.
24FFJk	.	.	.
24FFLL	.	8C-] 8G] 8c-]	.
24FF	.	.	.
24FFJJ	.	.	.
*v	*v	*	*
*	*clefG2	*
=171	=171	=171
8BBL 8G	16c#XLL 16f	2r
.	16G 16e	.
8FFFJ 8FF	16B 16e-X	.
.	16FJJ 16d	.
16GLL 16B	4c# 4f	.
16C#X 16B-X	.	.
16F 16An	.	.
16BBnJJ 16A-X	.	.
=172	=172	=172
4G 4Bn	16.r	2r
.	32f	.
.	12c#XL	.
.	24enJk	.
32FFKLL 32D	16.r	.
[16.C#XJJ [16.F	.	.
.	32B	.
8C#] 8F]	12GL	.
.	24B-XJk	.
=173	=173	=173
8BBnL 8G	16c#XLL 16f	2r
.	16G 16e	.
8FFFJ 8FF	16Bn 16e-X	.
.	16FJJ 16d	.
16GLL 16B	4c# 4f	.
16C#X 16B-X	.	.
16F 16A	.	.
16BBnJJ 16A-X	.	.
=174	=174	=174
4G 4Bn	16.r	2r
.	32f	.
.	12c#XL	.
.	24enJk	.
32FFKLL 32D	16.r	.
[16.C#XJJ [16.F	.	.
.	32B	.
8C#] 8F]	12GL	.
.	24B-XJk	.
*	*clefF4	*
=175	=175	=175
32FFLLL 32D	16GLL 16Bn	2r
32C#XJJJ 32F	.	.
16r	16C#X 16B-X	.
8r	16F 16A	.
.	16BBnJJ 16A-X	.
4r	16GLL 16Bn	.
.	16C# 16B-X	.
.	16F 16An	.
.	16BBnJJ 16A-X	.
=176	=176	=176
8FFF 8BBB 8GG	16GLL 16Bn	2r
.	16C#X 16B-X	.
8r	16F 16An	.
.	16BBnJJ 16A-X	.
4r	16GLL 16Bn	.
.	16C# 16B-X	.
.	16F 16An	.
.	16BBnJJ 16A-X	.
=177	=177	=177
32FFLLL 32D	16GLL 16Bn	2r
32C#XJJJ 32F	.	.
16r	16C#X 16B-X	.
8r	16F 16An	.
.	16BBnJJ 16A-X	.
4r	16GLL 16Bn	.
.	16C# 16B-X	.
.	16F 16An	.
.	16BBnJJ 16A-X	.
=178	=178	=178
8FFF 8BBB 8GG	16GLL 16Bn	2r
.	16C#X 16B-X	.
8r	16F 16An	.
.	16BBnJJ 16A-X	.
4r	16GLL 16Bn	.
.	16C# 16B-X	.
.	16F 16An	.
.	16BBnJJ 16A-X	.
=179||	=179||	=179||
*	*clefG2	*
*M4/4	*M4/4	*M4/4
*^	*^	*
16FFKL 16D	2rEE	8raa	2rc	1r
[8.C#XJ [8.F	.	.	.	.
.	.	8g	.	.
2.C#] 2.F]	.	2a-X	.	.
.	2FFF 2BBB 2GG	.	12rc	.
.	.	.	12BL	.
.	.	.	12dJ	.
.	.	4g	12BL	.
.	.	.	12d	.
.	.	.	12BJ	.
=180	=180	=180	=180	=180
16FFKL 16D	2rEE	8a-XL	2rc	1r
[8.C#XJ [8.F	.	.	.	.
.	.	8bJ	.	.
2.C#] 2.F]	.	2cc#X	.	.
.	2FFF 2BBB 2GG	.	12rc	.
.	.	.	12fL	.
.	.	.	12a-J	.
.	.	4b	12fL	.
.	.	.	12a-	.
.	.	.	12fJ	.
=181	=181	=181	=181	=181
16FFKL 16D	2rEE	4ee	12rc	1r
[8.C#XJ [8.F	.	.	.	.
.	.	.	12fL	.
.	.	.	12a-XJ	.
2.C#] 2.F]	.	4b	12rc	.
.	.	.	12fL	.
.	.	.	12a-J	.
.	2FFF 2BBB 2GG	4ee	12rc	.
.	.	.	12fL	.
.	.	.	12a-J	.
.	.	4b	12rc	.
.	.	.	12fL	.
.	.	.	12a-J	.
=182	=182	=182	=182	=182
16FFKL 16D	2rEE	4ee	12rc	1r
[8.C#XJ [8.F	.	.	.	.
.	.	.	12fL	.
.	.	.	12a-XJ	.
2.C#] 2.F]	.	4b	12rc	.
.	.	.	12fL	.
.	.	.	12a-J	.
.	2FFF 2BBB 2GG	4ee	12rc	.
.	.	.	12fL	.
.	.	.	12a-J	.
.	.	4b	12rc	.
.	.	.	12fL	.
.	.	.	12a-J	.
*v	*v	*	*	*
*	*v	*v	*
=183	=183	=183
8FF 8BB-X 8A-X	4r	6r
8r	.	.
.	.	16qqd/LL
.	.	16qqf/JJ
.	.	6b-X
4r	8a-XL	.
.	.	[6cc-X
.	24gL	.
.	24e	.
.	24dJJ	.
2r	[4c-X	3cc-]
.	8c-L]	.
.	.	6b-X
.	24dnL	.
.	24e	.
.	24gJJ	.
=184	=184	=184
.	.	8qf/
8AA-X 8D-X 8c-X	8a-X	12cc-XL
.	.	12ee--
8r	8r	.
.	.	[12ff-XJ
4r	8a-L	4ff-_
.	24gL	.
.	24f-X	.
.	24e--JJ	.
2r	[4c-X	3ff-]
.	8c-L]	.
.	.	6ee--
.	24e--L	.
.	24f-	.
.	24gJJ	.
=185	=185	=185
*	*	*^
8BB 8En 8dn	8g#X	4ggn	2b
8r	8r	.	.
4r	8g#L	4dd	.
.	24gnL	.	.
.	24en	.	.
.	24dJJ	.	.
2r	[4B	4ggn	2g#X 2b
.	8BL]	4dd	.
.	24dL	.	.
.	24e	.	.
.	24gnJJ	.	.
=186	=186	=186	=186
8D 8G 8f	8a-X	4gg	2b
8r	8r	.	.
4r	8a-L	4dd	.
.	24gL	.	.
.	24e	.	.
.	24dJJ	.	.
2r	[4Bn	4gg	2a-X 2b
.	8BL]	4dd	.
.	24dL	.	.
.	24e	.	.
.	24gJJ	.	.
*	*	*v	*v
=187	=187	=187
*^	*^	*
16FKL 16d	2rEE	8raa	2rc	1r
[8.c#XJ [8.f	.	.	.	.
.	.	8g 8gg	.	.
2.c#_ 2.f_	.	[2.a-X [2.aa-X	.	.
.	10FFFL	.	8gL	.
.	10BBB	.	.	.
.	.	.	8c#X	.
.	10GG	.	.	.
.	.	.	8f	.
.	10FF	.	.	.
.	.	.	8BJ	.
.	10BBJ	.	.	.
=188	=188	=188	=188	=188
1c#] 1f]	10GL	2.a-] 2.aa-]	8gL	1r
.	10BB	.	.	.
.	.	.	8c#X	.
.	10FF	.	.	.
.	.	.	8f	.
.	10GG	.	.	.
.	.	.	8BJ	.
.	10BBBJ	.	.	.
.	10FFFL	.	8gL	.
.	10BBB	.	.	.
.	.	.	8c#J	.
.	10GG	.	.	.
.	.	4g 4gg	4f	.
.	10FF	.	.	.
.	10BBJ	.	.	.
=189	=189	=189	=189	=189
16FKL 16d	2rEE	12a-XL 12aa-X	2rc	1r
[8.c#XJ [8.f	.	.	.	.
.	.	12b 12bb	.	.
.	.	[12cc#XJ [12ccc#X	.	.
2.c#_ 2.f_	.	2.cc#_ 2.ccc#_	.	.
.	10FFFL	.	8gL 8b	.
.	10BBBn	.	.	.
.	.	.	8c#X 8b-X	.
.	10GG	.	.	.
.	.	.	8f 8an	.
.	10FF	.	.	.
.	.	.	8BnJ 8a-X	.
.	10BBJ	.	.	.
=190	=190	=190	=190	=190
1c#] 1f]	10GL	2.cc#] 2.ccc#]	8gL 8bn	1r
.	10BBn	.	.	.
.	.	.	8c#X 8b-X	.
.	10FF	.	.	.
.	.	.	8f 8an	.
.	10GG	.	.	.
.	.	.	8BnJ 8a-X	.
.	10BBBJ	.	.	.
.	10FFFL	.	8gL 8bn	.
.	10BBBn	.	.	.
.	.	.	8c# 8b-X	.
.	10GG	.	.	.
.	.	4bn 4bbn	8cc#X 8ff	.
.	10FF	.	.	.
.	.	.	8gJ 8ee	.
.	10BBJ	.	.	.
=191	=191	=191	=191	=191
16FKL 16d	2rEE	4eee	8ggL 8bb	1r
[8.c#XJ [8.f	.	.	.	.
.	.	.	8cc#X 8bb-X	.
2.c#_ 2.f_	.	4bbn	8ff 8aan	.
.	.	.	8bJ 8aa-X	.
.	10FFFL	4eee	8ggL 8bb	.
.	10BBBn	.	.	.
.	.	.	8cc# 8bb-X	.
.	10GG	.	.	.
.	.	4bbn	8ff 8aan	.
.	10FF	.	.	.
.	.	.	8bJ 8aa-X	.
.	10BBJ	.	.	.
=192	=192	=192	=192	=192
1c#] 1f]	10GL	4eee	8ggL 8bb	1r
.	10BBn	.	.	.
.	.	.	8cc#X 8bb-X	.
.	10FF	.	.	.
.	.	4bbn	8ff 8aan	.
.	10GG	.	.	.
.	.	.	8bJ 8aa-X	.
.	10BBBJ	.	.	.
.	10FFFL	2raa	8ee-XL 8gg	.
.	10BBB	.	.	.
.	.	.	8an 8ff#X	.
.	10GG	.	.	.
.	.	.	8cc# 8ffn	.
.	10FF	.	.	.
.	.	.	8gJ 8een	.
.	10BBJ	.	.	.
=193||	=193||	=193||	=193||	=193||
1G-X	12G-L	1d 1b 1ee-X	8rc	1r
.	12BB	.	.	.
.	.	.	8f	.
.	12FFJ	.	.	.
.	12BBL	.	2g-X	.
.	12GG-X	.	.	.
.	12BBBJ	.	.	.
.	12FFFL	.	.	.
.	12BBB	.	.	.
.	12GG-J	.	.	.
.	12BBL	.	4f	.
.	12FF	.	.	.
.	12BBJ	.	.	.
=194	=194	=194	=194	=194
1G-X	12G-L	1d 1b 1ee-X	8g-XL	1r
.	12BB	.	.	.
.	.	.	8aJ	.
.	12FFJ	.	.	.
.	12BBL	.	2b	.
.	12GG-X	.	.	.
.	12BBBJ	.	.	.
.	12FFFL	.	.	.
.	12BBB	.	.	.
.	12GG-J	.	.	.
.	12BBL	.	4a	.
.	12FF	.	.	.
.	12BBJ	.	.	.
=195	=195	=195	=195	=195
1A	2rEE	2f 2gg-X	4dd	1r
.	.	.	4a	.
.	12FFFL	2f 2gg-	4dd	.
.	12BBB	.	.	.
.	12GG-XJ	.	.	.
.	12BBL	.	4a	.
.	12FF	.	.	.
.	12BBJ	.	.	.
*	*	*v	*v	*
=196	=196	=196	=196
1A	2rEE	6r	1r
.	.	6d 6g-X	.
.	.	6d 6g-	.
.	12FFFL	6d 6g-	.
.	12BBB	.	.
.	12GG-XJ	6d 6g-	.
.	12BBL	.	.
.	12FF	6d 6g-	.
.	12BBJ	.	.
=197	=197	=197	=197
*	*	*^	*
1G-X	12G-L	1d 1b 1ee-X	8rc	1r
.	12BB	.	.	.
.	.	.	8f	.
.	12FFJ	.	.	.
.	12BBL	.	2g-X	.
.	12GG-X	.	.	.
.	12BBBJ	.	.	.
.	12FFFL	.	.	.
.	12BBB	.	.	.
.	12GG-J	.	.	.
.	12BBL	.	4f	.
.	12FF	.	.	.
.	12BBJ	.	.	.
=198	=198	=198	=198	=198
1G-X	12G-L	1d 1b 1ee-X	8g-XL	1r
.	12BB	.	.	.
.	.	.	8aJ	.
.	12FFJ	.	.	.
.	12BBL	.	2b	.
.	12GG-X	.	.	.
.	12BBBJ	.	.	.
.	12FFFL	.	.	.
.	12BBB	.	.	.
.	12GG-J	.	.	.
.	12BBL	.	4a	.
.	12FF	.	.	.
.	12BBJ	.	.	.
=199	=199	=199	=199	=199
1A	2rEE	2f 2gg-X	4dd	1r
.	.	.	4a	.
.	12FFFL	6f 6a 6dd 6gg-	2rc	.
.	12BBB	.	.	.
.	12GG-XJ	6f 6a 6dd 6gg-	.	.
.	12BBL	.	.	.
.	12FF	6f 6a 6dd 6gg-	.	.
.	12BBJ	.	.	.
*	*	*v	*v	*
=200	=200	=200	=200
2c	16rEE	6g#X 6cc 6ee#X 6aa	1r
.	16EEE#XLL	.	.
.	16BBB	.	.
.	.	6g# 6cc 6ee# 6aa	.
.	16FF#XJJ	.	.
.	16BBLL	.	.
.	16EE#X	.	.
.	.	6g# 6cc 6ee# 6aa	.
.	16BB	.	.
.	16F#XJJ	.	.
2e-X	16rEE	6b 6ee-X 6aa-X 6ccc	.
.	16FFFnLL	.	.
.	16BBB	.	.
.	.	6b 6ee- 6aa- 6ccc	.
.	16GG-XJJ	.	.
.	16BBLL	.	.
.	16FF#	.	.
.	.	6b 6ee- 6aa- 6ccc	.
.	16BB	.	.
.	16G-XJJ	.	.
=201	=201	=201	=201
4rc	4FFF 4BBB 4GG-X	16r	1r
.	.	16DLL	.
.	.	16G-X	.
.	.	16BJJ 16e-X	.
8.rc	4rEE	20dLL	.
.	.	20g-X	.
.	.	20b 20ee-X	.
.	.	20dd	.
16e-X	.	.	.
.	.	20gg-XJJ	.
4B	2rEE	12bbL 12eee-X	.
.	.	12gg-	.
.	.	12ddJ	.
4d	.	12bL 12dd	.
.	.	12g-	.
.	.	12dJ	.
=202	=202	=202	=202
4rc	4GGG#X 4DD 4AA	16r	1r
.	.	16DLL	.
.	.	16F	.
.	.	16AJJ 16c#X	.
8.rc	4rEE	20dLL	.
.	.	20f	.
.	.	20a 20cc#X	.
.	.	20dd	.
16c#X	.	.	.
.	.	20ffJJ	.
4A	2rEE	12aaL 12ccc#X	.
.	.	12ff	.
.	.	12ddJ	.
4cn	.	12aL 12ccn	.
.	.	12f	.
.	.	12dJ	.
=203	=203	=203	=203
4rc	4FFF 4BBB 4GG-X	16r	1r
.	.	16DLL	.
.	.	16G-X	.
.	.	16BJJ 16e-X	.
8.rc	4rEE	20dLL	.
.	.	20g-X	.
.	.	20b 20ee-X	.
.	.	20dd	.
16e-X	.	.	.
.	.	20gg-XJJ	.
4B	2rEE	12bbL 12eee-X	.
.	.	12gg-	.
.	.	12ddJ	.
4d	.	12bL 12dd	.
.	.	12g-	.
.	.	12dJ	.
=204	=204	=204	=204
4rc	4GGG#X 4DD 4AA	16r	1r
.	.	16DLL	.
.	.	16F	.
.	.	16AJJ 16c#X	.
8.rc	4rEE	20dLL	.
.	.	20f	.
.	.	20a 20cc#X	.
.	.	20dd	.
16c#X	.	.	.
.	.	20ffJJ	.
4A	2rEE	12aaL 12ccc#X	.
.	.	12ff	.
.	.	12ddJ	.
4cn	.	12aL 12ccn	.
.	.	12f	.
.	.	12dJ	.
*v	*v	*	*
=205||	=205||	=205||
*M4/8	*M4/8	*M4/8
*	*^	*
*	*	*^	*
32BBLLL 32G-X	16.raa	4g-X	16.r	2r
32FFJJJ	.	.	.	.
16r	.	.	.	.
.	32ee-X	.	[32d\	.
32BBBLLL 32GG-X	12bL	.	8d/]	.
32FFFJJJ	.	.	.	.
16r	.	.	.	.
.	24ddJk	.	.	.
32DLLL 32A	16.raa	4f	16.r	.
32GG#XJJJ	.	.	.	.
16r	.	.	.	.
.	32cc#X	.	[32d/	.
32DDLLL 32AA	12aL	.	8d/]	.
32GGG#XJJJ	.	.	.	.
16r	.	.	.	.
.	24ccnJk	.	.	.
*	*clefF4	*	*	*
=206	=206	=206	=206	=206
32BBBLLL 32GG-X	16.rc	4G-X	16.r	2r
32FFFJJJ	.	.	.	.
16r	.	.	.	.
.	32e-X	.	[32D\	.
8r	12BL	.	8D\]	.
.	24dJk	.	.	.
32DDLLL 32AA	16.rc	4F	16.r	.
32GGG#XJJJ	.	.	.	.
16r	.	.	.	.
.	32c#X	.	[32D\	.
8r	12AL	.	8D\]	.
.	24cnJk	.	.	.
*	*	*v	*v	*
=207	=207	=207	=207
32BBBLLL	16.rc	4GG-X	2r
32FFFJJJ	.	.	.
16r	.	.	.
.	32E-X	.	.
8r	12BBL	.	.
.	24DJk	.	.
32DDLLL	16.rc	4FF	.
32GGG#XJJJ	.	.	.
16r	.	.	.
.	32C#X	.	.
8r	12AAL	.	.
.	24CnJk	.	.
*	*v	*v	*
=208	=208	=208
4FFF#X	16.r	2r
.	32EE-X	.
.	12BBBL	.
.	24DDJk	.
[4EEE#X	16.r	.
.	32CC#X	.
.	12AAAL	.
.	24CCnJk	.
*	*clefG2	*
=209	=209	=209
2EEE#_	2r	2r
=210	=210	=210
4EEE#]	8gL 8b	2r
.	8c#XJ 8b-X	.
4r	8fL 8a	.
.	8BnJ 8a-X	.
=211	=211	=211
8c#XL 8f	[2g [2bn	2r
8GJ 8e	.	.
8BL 8e-X	.	.
8FJ 8d	.	.
=212	=212	=212
8c#X 8f	8gL] 8b]	2r
8r	8c#XJ 8b-X	.
4r	8fL 8a	.
.	8BnJ 8a-X	.
=213	=213	=213
8c#XL 8f	[2g [2bn	2r
8GJ 8e	.	.
8BL 8e-X	.	.
8FJ 8d	.	.
=214	=214	=214
2r	2g_ 2b_	2r
=215	=215	=215
4c#X 4f	2g_ 2b_	2r
4r	.	.
=216	=216	=216
2FFF	2g] 2b]	2r
==	==	==
*-	*-	*-
!!!system-decoration: {(s1,s2,s3)}
!!!ENC: Bryan Jacob Bell
!!!END: November 2021 to April 2022
!!!PED: Günter Philipp
!!!PTL: Ausgewählte Klavierwerke (Edition Peters)
